X:1
T:Camptown Races
C:Stephen Foster
M:4/4
L:1/4
K:D
|:  A|"D""^VERSES"A     A    F       A|     B    A      F2|"D" F"A"E2 z|"D"F"A"E2 A
w:1.De   Camp- town lad-    ies    sing this   song,  Doo-dah!   doo-dah! De
w:I      came  down dah     wid~my hat  caved  in,    Doo-dah!   doo-dah! I
w:2.De   long  tail filly   and~de big  black  hoss,  Doo-dah!   doo-dah! De
w:De     blind hoss sticken in~a   big  mud    hole,  Doo-dah!   doo-dah! *
w:3.Old  mu-   ley  cow     come   onto de     track, Doo-dah!   doo-dah! De
w:Den    fly   a-   long    like~a rail-road   car,   Doo-dah!   doo-dah! *
w:4.See  dem   fly- in'     on~a   ten  mile   heat,  Doo-dah!   doo-dah! *
w:I      win   my   money   on~de  bob- tail   nag,   Doo-dah!   doo-dah! I
|"D"A       A     F      A|     B      A       F2 |"A"E2  F   E|"D"D2-D2:|
w: Camp-   town  race-  track  five   miles   long.  Oh, doo-dah  day!_
w: go      back  home   wid~a  pocket full~of tin.   Oh, doo-dah  day!_
w: fly     de    track  and~de both   cut~a-  cross. Oh, doo-dah  day!_
w: Can't   touch bottom wid~a  ten    foot    pole.  Oh, doo-dah  day!_
w: bob-    tail  fling  her    over   his     back.  Oh, doo-dah  day!_
w: Runnin' a     race   wid~a  shoot- in'     star.  Oh, doo-dah  day!_
w: Round   de    race-  track, den    re-     peat,  Oh, doo-dah  day!_
w: keep    my    money  in~an  old    tow     bag,   Oh, doo-day  day!_
| "D""^CHORUS"D>    D  F   A|  d2-d2|"G"B>    B  d   B|"D"A3   F
w:   Gwine to run all night! * Gwine to run all  day! I'll
| A    A  F/2F/2 A/2A/2|B   A      F2|"A"E    F/2G/2 F   E/2E/2|"D"D2-D2||
w:bet  my mo-ney on a   bob-tailed nag;  Some-bo- dy bet on the    bay._
